X: 7
T: The Cook In The Kitchen
R: jig
M: 6/8
L: 1/8
K: Dmaj
|:B|Add ded|=cAB c2B|Add dcd|eaa gec|
Add ded|=cAB c2a|ged cde|fdc d2:|
|:e|fgf fed| efe age|ded dcd|eaa ged|
|fgf fed| efe efa|ged cde|fdc [1 d2:|2 dc|]
|:B|A2B c2d| efd cBA|ged cde|efa gec|
A2B c2d| efd cBA|ged cde|fdc [1 dc:|2 d2|]


Tune 808	Setting 26015

